X: 1
T: String Quartet in B Minor opus 33 no 1 mvt 4
C: Franz Joseph Haydn
%%abc-version 2.0
%%abcx-abcm2ps-target-version 5.9.1 (29 Sep 2008)
%%abc-creator hum2abc beta
%%abcx-conversion-date 2021/02/14 14:38:32
%%abc-copyright Copyright (c) 1994, 2000 Center for Computer Assisted Research in the Humanities
%%abc-edited-by Frances Bennion
%%abcx-initial-encoding-date 1997/04/15
%%gracespace 0 6 6
%%humdrum-veritas 3524094760
%%humdrum-veritas-data 4171329859
%%linebreak <none>
%%barnumbers 0
L: 1/8
M: 2/4
N: Derived from op33n1-04.krn
Q: "Presto"
%%staves [1 2 3 4]
V: 1
V: 2
V: 3 clef=alto
V: 4 clef=bass
K: D
[V:1]z2 B,B, [I:setbarnb1]|
[V:2]z2 z2 |
[V:3]z2 z2 |
[V:4]z2 z2 |
[V:1]B,D FF |
[V:2]zD DD |
[V:3]zB, B,B, |
[V:4]B,,2 z2 |
[V:1]F2 B,B, |
[V:2]zD DD |
[V:3]zB, B,B, |
[V:4]B,,2 z2 |
[V:1]B,E GG |
[V:2]zE EE |
[V:3]zG, G,G, |
[V:4]B,,2 z2 |
[V:1]G2 ^A,A, |
[V:2]zE EE |
[V:3]zG, G,G, |
[V:4]B,,2 z2 |
[V:1]^A,C FE |
[V:2]zC CC |
[V:3]zF, F,F, |
[V:4]^A,,2 z2 |
[V:1]D2 C2 |
[V:2]zB, z^A, |
[V:3]zF, zF, |
[V:4]B,,2 F,2 |
[V:1]B,3 D |
[V:2]B,4- |
[V:3]F,4 |
[V:4]D,,D, D,D, |
[V:1]D2 CE |
[V:2]B,4- |
[V:3]G,4 |
[V:4]E,,E, E,E, |
[V:1]E2 ^DF |
[V:2]B,4- |
[V:3]A,4 |
[V:4]F,,F, F,F, |
[V:1]E>F GG |
[V:2]B,2 ^A,2 |
[V:3]B,E CC |
[V:4]G,,G,, E,E, |
[V:1]FB, CB,/^A,/ |
[V:2]B,F ED/C/ |
[V:3]B,D, E,F, |
[V:4]D,D, E,F, |
[V:1]B,2 z2 |
[V:2]B,2 z2 |
[V:3]B,2 z2 |
[V:4]B,,B,, D,F, |
[V:1]D/B/f/g/ f/b/a/g/ |
[V:2][F2d2] z2 |
[V:3][B2D2] z2 |
[V:4]B,,2 z2 |
[V:1]fd/f/ c/f/B/f/ |
[V:2]zD EF |
[V:3]zB, CD |
[V:4]z4 |
[V:1]^A/c/f/g/ f/c'/^a/^g/ |
[V:2][^A,2F2] z2 |
[V:3]C2 z2 |
[V:4]F,2 z2 |
[V:1]fe/f/ d/f/c/f/ |
[V:2]zc B^A |
[V:3]z4 |
[V:4]z4 |
[V:1]D/B/f/g/ f/b/a/g/ |
[V:2][B,2D2B2] z2 |
[V:3]F2 z2 |
[V:4]B,,2 z2 |
[V:1]fd/f/ c/f/B/f/ |
[V:2]zD EF |
[V:3]zB, CD |
[V:4]z4 |
[V:1]^A/c/f/g/ f/c'/^a/^g/ |
[V:2][^A,2F2] z2 |
[V:3]C2 z2 |
[V:4]F,2 z2 |
[V:1]fe/f/ d/f/c/f/ |
[V:2]zc B^A |
[V:3]z4 |
[V:4]z4 |
[V:1]D/B/f/g/ f/b/a/g/ |
[V:2][B2B,2D2] z2 |
[V:3]F2 z2 |
[V:4]B,,2 z2 |
[V:1]fB/f/ c/f/d/f/ |
[V:2]zF ED |
[V:3]zD CB, |
[V:4]z4 |
[V:1]E/B/g/a/ g/b/g/f/ |
[V:2][G2B,2] z2 |
[V:3][E2G,2] z2 |
[V:4]E,2 z2 |
[V:1]eE/B/ F/B/G/B/ |
[V:2]zB AG |
[V:3]zG FE |
[V:4]z4 |
[V:1]A,/C/E/A/ c/e/c/B/ |
[V:2][C2E2] z2 |
[V:3]G2 z2 |
[V:4]A,2 z2 |
[V:1]AE/A/ F/A/G/A/ |
[V:2]zC DE |
[V:3]z4 |
[V:4]z4 |
[V:1]D/F/A/d/ f/a/f/e/ |
[V:2]F2 z2 |
[V:3]A,2 z2 |
[V:4]D,2 z2 |
[V:1]dD/A/ E/A/F/A/ |
[V:2]zd dd |
[V:3]zA, G,F, |
[V:4]zF, E,D, |
[V:1]E/G/c/e/ g/b/g/f/ |
[V:2]c2 z2 |
[V:3]G,2 z2 |
[V:4]E,2 z2 |
[V:1]eE/A/ F/A/G/A/ |
[V:2]z4 |
[V:3]z4 |
[V:4]zC DE |
[V:1]F/D/E/F/ G/A/B/c/ |
[V:2]d4- |
[V:3]F4 |
[V:4]DD DD |
[V:1]d/e/f/g/ a/b/c'/d'/ |
[V:2]d4- |
[V:3]A4 |
[V:4]F,F, F,F, |
[V:1]d'b b2- |
[V:2]d4- |
[V:3]B4- |
[V:4]G,G, G,G, |
[V:1]bb c'd' |
[V:2]d4- |
[V:3]B4 |
[V:4]G,G, G,G, |
[V:1]d'a a2- |
[V:2]d4- |
[V:3]A4- |
[V:4]F,F, F,F, |
[V:1]af' d'b |
[V:2]d4- |
[V:3]A4 |
[V:4]F,F, F,F, |
[V:1]a^g g2- |
[V:2]d4- |
[V:3]B4- |
[V:4]E,E, E,E, |
[V:1]ge/^g/ e/g/e/g/ |
[V:2]d4 |
[V:3]B4 |
[V:4]E,E, E,E, |
[V:1]e'g g2- |
[V:2]cc/A/ c/A/c/A/ |
[V:3]AA/c/ A/c/A/c/ |
[V:4]E,E, E,E, |
[V:1]ge/g/ e/g/e/g/ |
[V:2]c4 |
[V:3]A4- |
[V:4]E,E, E,E, |
[V:1]e'A A2- |
[V:2]gG/E/ G/E/G/E/ |
[V:3]AE/G/ E/G/E/G/ |
[V:4]C,C, C,C, |
[V:1]Ae cG |
[V:2]G3 E |
[V:3]E4 |
[V:4]C,C, C,C, |
[V:1]Fd dd |
[V:2]F2 D2- |
[V:3]A,4 |
[V:4]D,2 F,2 |
[V:1]Bb bb |
[V:2]D2 ^E2 |
[V:3]B,2 D2 |
[V:4]G,4 |
[V:1]A4 |
[V:2]FF FF |
[V:3]DD DD |
[V:4]A,A, A,A, |
[V:1]e4 |
[V:2]GG GG |
[V:3]CC CC |
[V:4]A,,A,, A,,A,, |
[V:1]dd dd |
[V:2]F2 D2- |
[V:3]D2 A,2 |
[V:4]D,2 F,2 |
[V:1]Bd' d'd' |
[V:2]D2 ^E2 |
[V:3]B,2 B2 |
[V:4]G,4 |
[V:1]A4 |
[V:2]FF FF |
[V:3]DD DD |
[V:4]A,A, A,A, |
[V:1]e4 |
[V:2]GG GG |
[V:3]CC CC |
[V:4]A,,A,, A,,A,, |
[V:1]d2 zf |
[V:2]F2 zd |
[V:3]D2 z2 |
[V:4]D,D,, D,,z |
[V:1]fg ze |
[V:2]de zc |
[V:3]zB, B,C |
[V:4]zG, G,A, |
[V:1]ef zd |
[V:2]cd zB |
[V:3]zA, A,B, |
[V:4]zF, F,G, |
[V:1]ee cc |
[V:2]GG EE |
[V:3]B,B, G,G, |
[V:4]E,E, A,A, |
[V:1]d2 zf |
[V:2]F2 zd |
[V:3]F,2 z2 |
[V:4]D,D D,2 |
[V:1]fb ze |
[V:2]dB zc |
[V:3]zB Be |
[V:4]zG, G,E, |
[V:1]ea zf |
[V:2]cA zd |
[V:3]zA Ad |
[V:4]zF, F,D, |
[V:1]ee cc |
[V:2]BB GG |
[V:3]GG EE |
[V:4]G,G, A,A, |
[V:1]d/A/F/A/ G/A/G/A/ |
[V:2]F2 z2 |
[V:3]DD CC |
[V:4]D,2 z2 |
[V:1]F/A/F/A/ E/A/E/A/ |
[V:2]z2 cc |
[V:3]DD z2 |
[V:4]z4 |
[V:1]F/A/F/A/ G/A/G/A/ |
[V:2]dd z2 |
[V:3]z4 |
[V:4]z2 CC |
[V:1]F/A/F/A/ E/A/E/A/ |
[V:2]z2 c'c' |
[V:3]z2 [GA,][GA,] |
[V:4]DD A,,A,, |
[V:1]D2 dd |
[V:2]d'2 z2 |
[V:3][F2A,2] z2 |
[V:4]D,,2 z2 |
[V:1]df aa |
[V:2]z2 DD |
[V:3]z4 |
[V:4]z4 |
[V:1]a2 =cc |
[V:2]DF AA |
[V:3]z4 |
[V:4]z4 |
[V:1]=cf aa |
[V:2]A2 =CC |
[V:3]z4 |
[V:4]z4 |
[V:1]a2 BB |
[V:2]=CF AA |
[V:3]z4 |
[V:4]z4 |
[V:1]B^d fa |
[V:2]A2 B,B, |
[V:3]z4 |
[V:4]z4 |
[V:1]a2 ^dd |
[V:2]B,^D FA |
[V:3]z4 |
[V:4]z4 |
[V:1]^df a=c' |
[V:2]A^d fa |
[V:3]z2 ^DD |
[V:4]z2 A,A, |
[V:1]=c'4 |
[V:2]a4 |
[V:3]^DF AA |
[V:4]A,^D FF |
[V:1]^d4 |
[V:2]B4- |
[V:3]A4 |
[V:4]F4 |
[V:1]E/G/B/e/ g/b/g/f/ |
[V:2]B2 z2 |
[V:3]GE B,E |
[V:4]EE, E,E, |
[V:1]e2 z2 |
[V:2]E/G/B/e/ g/b/g/e/ |
[V:3]GE B,E |
[V:4]E,E, E,E, |
[V:1]A/B/^d/f/ a/f/d/B/ |
[V:2]^d2 z2 |
[V:3]A^D B,D |
[V:4]F,F, F,F, |
[V:1]A2 z2 |
[V:2]A/B/^d/f/ a/f/d/B/ |
[V:3]A^D B,D |
[V:4]F,F, F,F, |
[V:1]A/B/^d/f/ a/=c'/a/g/ |
[V:2]A2 z2 |
[V:3]AF B,F |
[V:4]^D,D, D,D, |
[V:1]f2 z2 |
[V:2]A/B/^d/f/ a/=c'/a/f/ |
[V:3]AF B,F |
[V:4]^D,D, D,D, |
[V:1]E/G/B/e/ g/b/g/f/ |
[V:2]g2 z2 |
[V:3]GE B,E |
[V:4]E,E, E,E, |
[V:1]e2 z2 |
[V:2]E/G/B/e/ g/b/g/f/ |
[V:3]GE B,E |
[V:4]E,E, E,E, |
[V:1]D/E/^G/B/ d/e/^g/b/ |
[V:2]e2 z2 |
[V:3]^GE B,E |
[V:4]D,D, D,D, |
[V:1]^g2 z2 |
[V:2]D/E/^G/B/ d/e/^g/b/ |
[V:3]^GE B,E |
[V:4]D,D, D,D, |
[V:1]A/c/e/a/ c'/e'/c'/a/ |
[V:2]a2 z2 |
[V:3]AE A,E |
[V:4]C,C, C,C, |
[V:1]A2 z2 |
[V:2]A/c/e/a/ c'/e'/c'/a/ |
[V:3]AE A,E |
[V:4]C,C, C,C, |
[V:1]A/c/e/a/ c'/e'/c'/a/ |
[V:2]A2 z2 |
[V:3]GE A,E |
[V:4]C,C, C,C, |
[V:1]ge cA |
[V:2]C/E/G/A/ c/e/c/A/ |
[V:3]G2 z2 |
[V:4]C,C, C,C, |
[V:1]G4- |
[V:2]GE EE |
[V:3]C/E/G/A/ c/e/c/A/ |
[V:4]A,,/C,/E,/G,/ A,/G,/E,/C,/ |
[V:1]G4- |
[V:2]E4- |
[V:3]EC CC |
[V:4]A,,A,, A,,A,, |
[V:1]G2 z2 |
[V:2]E2 z2 |
[V:3]C2 z2 |
[V:4]A,,2 D,D, |
[V:1]z2 dd |
[V:2]z2 FF |
[V:3]z4 |
[V:4]D,F, A,A, |
[V:1]dc z2 |
[V:2]FE z2 |
[V:3]z4 |
[V:4]A,2 A,A, |
[V:1]z2 cc |
[V:2]z2 GG |
[V:3]z4 |
[V:4]A,C EE |
[V:1]cd z2 |
[V:2]GF z2 |
[V:3]z2 DD |
[V:4]ED z2 |
[V:1]z2 d'd' |
[V:2]z2 ff |
[V:3]DF AA |
[V:4]z4 |
[V:1]d'c' z2 |
[V:2]fe z2 |
[V:3]A2 AA |
[V:4]z4 |
[V:1]z2 c'c' |
[V:2]z2 gg |
[V:3]Ac ee |
[V:4]z4 |
[V:1]c'd' ^gg |
[V:2]gf =ff |
[V:3]ed dd |
[V:4]z4 |
[V:1]^ga ff |
[V:2]=fe _ee |
[V:3]dc =cc |
[V:4]z4 |
[V:1]fg ^ee |
[V:2]^d=d dd |
[V:3]=cB BB |
[V:4]z4 |
[V:1]^ef ^dd |
[V:2]dc =cc |
[V:3]B^A =AA |
[V:4]z4 |
[V:1]^de z2 |
[V:2]=cB z2 |
[V:3]AG z2 |
[V:4]z4 |
[V:1]z2 gg |
[V:2]z2 ^AA |
[V:3]z4 |
[V:4]z2 EE |
[V:1]gf ee |
[V:2]^AB BB |
[V:3]z2 GG |
[V:4]ED z2 |
[V:1]ed gg |
[V:2]B2 ^AA |
[V:3]GF z2 |
[V:4]z2 EE |
[V:1]gf ff |
[V:2]^AB FF |
[V:3]z2 F,F, |
[V:4]ED DD |
[V:1]fe ed |
[V:2]F4- |
[V:3]F,4- |
[V:4]DC CB, |
[V:1]dc FF |
[V:2]F2 FF |
[V:3]F,2 FF |
[V:4]B,^A, F,F, |
[V:1]FD DB, |
[V:2]FD DB, |
[V:3]FD DB, |
[V:4]F,D, D,B,, |
[V:1]F2 B,B, |
[V:2]F2 z2 |
[V:3]F2 z2 |
[V:4]F,2 z2 |
[V:1]B,D FF |
[V:2]zD DD |
[V:3]zB, B,B, |
[V:4]B,,2 z2 |
[V:1]F2 B,B, |
[V:2]zD DD |
[V:3]zB, B,B, |
[V:4]B,,2 z2 |
[V:1]B,E GG |
[V:2]zE EE |
[V:3]zG, G,G, |
[V:4]B,,2 z2 |
[V:1]G2 ^A,A, |
[V:2]zE EE |
[V:3]zG, G,G, |
[V:4]B,,2 z2 |
[V:1]^A,C FE |
[V:2]zC CC |
[V:3]zF, F,F, |
[V:4]^A,,2 z2 |
[V:1]D2 C2 |
[V:2]zB, z^A, |
[V:3]zF, zF, |
[V:4]B,,2 F,2 |
[V:1]B,3 D |
[V:2]B,4- |
[V:3]F,4 |
[V:4]D,,D, D,D, |
[V:1]D2 CE |
[V:2]B,4- |
[V:3]G,4 |
[V:4]E,,E, E,E, |
[V:1]E2 ^DF |
[V:2]B,4- |
[V:3]A,4 |
[V:4]F,,F, F,F, |
[V:1]F4 |
[V:2]B,4- |
[V:3]B,4- |
[V:4]G,,4- |
[V:1]E2 z2 |
[V:2]B,2 z2 |
[V:3]B,2 z2 |
[V:4]G,,2 z2 |
[V:1]z4 |
[V:2]z3 G |
[V:3]z3 B, |
[V:4]z4 |
[V:1]z3 A |
[V:2]G2 Fz |
[V:3]B,2 A,=C |
[V:4]D,,D, D,D, |
[V:1]A2 Gz |
[V:2]z3 B |
[V:3]=C2 B,D |
[V:4]G,,G, G,G, |
[V:1]z3 c |
[V:2]B2 ^Az |
[V:3]D2 CE |
[V:4]F,,F, F,F, |
[V:1]c2 Bz |
[V:2]z3 d |
[V:3]E2 DF |
[V:4]B,,B, B,B, |
[V:1]z3 e |
[V:2]d2 cz |
[V:3]F2 EG |
[V:4]A,,A, A,A, |
[V:1]e2 dz |
[V:2]z3 f |
[V:3]G2 FA |
[V:4]D,D DD |
[V:1]z3 ^g |
[V:2]f2 ^ez |
[V:3]A2 ^GB |
[V:4]C,C CC |
[V:1]^g4 |
[V:2]z4 |
[V:3]B4 |
[V:4]C4- |
[V:1]f2 ^e2 |
[V:2]z4 |
[V:3]A2 ^G2 |
[V:4]C4- |
[V:1]^e4 |
[V:2]z4 |
[V:3]^G4 |
[V:4]C4- |
[V:1]f2 e2 |
[V:2]z2 C2 |
[V:3]A2 G2 |
[V:4]C2 C2 |
[V:1]e4 |
[V:2]C4 |
[V:3]G4- |
[V:4]C4 |
[V:1]d2 c2 |
[V:2]D2 E2 |
[V:3]G2 G2 |
[V:4]B,2 ^A,2 |
[V:1]c4- |
[V:2]E4- |
[V:3]G4- |
[V:4]^A,4- |
[V:1]c4 |
[V:2]E4 |
[V:3]G4 |
[V:4]A,4 |
[V:1]D/B/f/g/ f/b/a/g/ |
[V:2][B,2D2] z2 |
[V:3]F2 z2 |
[V:4]B,2 z2 |
[V:1]fd/f/ c/f/B/f/ |
[V:2]zD EF |
[V:3]zB, CD |
[V:4]z4 |
[V:1]^A/c/f/g/ f/c'/^a/^g/ |
[V:2][^A,2F2] z2 |
[V:3]C2 z2 |
[V:4]F,2 z2 |
[V:1]fe/f/ d/f/c/f/ |
[V:2]zc B^A |
[V:3]z4 |
[V:4]z4 |
[V:1]D/B/f/g/ f/b/a/g/ |
[V:2][B,2B2D2] z2 |
[V:3]F2 z2 |
[V:4]B,,2 z2 |
[V:1]fd/f/ c/f/B/f/ |
[V:2]zD EF |
[V:3]zB, CD |
[V:4]z4 |
[V:1]^A/c/f/g/ f/c'/^a/^g/ |
[V:2][^A,2F2] z2 |
[V:3]C2 z2 |
[V:4]F,2 z2 |
[V:1]fe/f/ d/f/c/f/ |
[V:2]zc B^A |
[V:3]z4 |
[V:4]z4 |
[V:1]D/B/f/g/ f/b/a/g/ |
[V:2][D2B,2B2] z2 |
[V:3]F2 z2 |
[V:4]B,,2 z2 |
[V:1]fB/f/ c/f/d/f/ |
[V:2]zF ED |
[V:3]zD CB, |
[V:4]z4 |
[V:1]E/B/g/a/ g/b/g/f/ |
[V:2][G2B,2] z2 |
[V:3][E2G,2] z2 |
[V:4]E,2 z2 |
[V:1]eE/B/ F/B/G/B/ |
[V:2]zB AG |
[V:3]zG FE |
[V:4]z4 |
[V:1]^E/c/^g/a/ g/b/g/f/ |
[V:2]c2 z2 |
[V:3]^G2 z2 |
[V:4]^E,2 z2 |
[V:1]^e^E/c/ F/c/^G/c/ |
[V:2]zC ^D^E |
[V:3]z4 |
[V:4]z4 |
[V:1]^A/c/f/f/ f/f/f/f/ |
[V:2]F2 dd |
[V:3]F2 FF |
[V:4]F,4- |
[V:1]e/f/e/f/ d/f/d/f/ |
[V:2]cc BB |
[V:3]^AA BB |
[V:4]F,4- |
[V:1]c/f/c/f/ d/f/d/f/ |
[V:2]^AA FF |
[V:3]FF BB |
[V:4]F,4- |
[V:1]e/f/e/f/ d/f/d/f/ |
[V:2]^A,A, B,B, |
[V:3]cc BB |
[V:4]F,4- |
[V:1]c/F/^G/^A/ B/c/^d/^e/ |
[V:2]Fc cc |
[V:3]^AA AA |
[V:4]F,F, F,F, |
[V:1]f/^g/^a/b/ c'a |
[V:2]cc cc |
[V:3]^AA AA |
[V:4]E,E, E,E, |
[V:1]bb b2- |
[V:2]BB BB |
[V:3]FF FF |
[V:4]D,D, D,D, |
[V:1]bd' bg |
[V:2]BB BB |
[V:3]FF FF |
[V:4]D,D, D,D, |
[V:1]fe e2- |
[V:2]BB BB |
[V:3]GG GG |
[V:4]C,C, C,C, |
[V:1]ee' e'e' |
[V:2]B4- |
[V:3]G4- |
[V:4]C,C, C,C, |
[V:1]e'g g2- |
[V:2]BB BB |
[V:3]GG/E/ G/E/G/E/ |
[V:4]C,C, C,C, |
[V:1]ge/g/ e/g/e/g/ |
[V:2]B4 |
[V:3]G4- |
[V:4]C,C, C,C, |
[V:1]e'g g2- |
[V:2]^A4- |
[V:3]GG/E/ G/E/G/E/ |
[V:4]C,C, C,C, |
[V:1]ge/g/ e/g/e/g/ |
[V:2]A^A AA |
[V:3]G4 |
[V:4]C,C, C,C, |
[V:1]e'^a a2- |
[V:2]cc cc |
[V:3]FF FF |
[V:4]^A,,A,, A,,A,, |
[V:1]ac' ^ae |
[V:2]cc cc |
[V:3]FF FF |
[V:4]^A,,A,, A,,A,, |
[V:1]db bb |
[V:2]d2 B2- |
[V:3]F4 |
[V:4]B,,2 D,2 |
[V:1]ge ee |
[V:2]B2 c2 |
[V:3]G2 B2- |
[V:4]E,4 |
[V:1]F4 |
[V:2]dd dd |
[V:3]BB BB |
[V:4]F,F, F,F, |
[V:1]c4 |
[V:2]^AA AA |
[V:3]EE EE |
[V:4]F,F, F,F, |
[V:1]BB BB |
[V:2]BD DD |
[V:3]D4- |
[V:4]G,4 |
[V:1]Gb bb |
[V:2]^EE EE |
[V:3]D4- |
[V:4]G,,4 |
[V:1]F4 |
[V:2]FB BB |
[V:3]DD DD |
[V:4]F,,F,, F,,F,, |
[V:1]c4 |
[V:2]^AA AA |
[V:3]EE EE |
[V:4]F,,F,, F,,F,, |
[V:1]B2 zf |
[V:2]B2 zd |
[V:3]D2 z2 |
[V:4]B,,B, B,,z |
[V:1]fg ze |
[V:2]de zc |
[V:3]zB, B,C |
[V:4]zG, G,A, |
[V:1]ef zd |
[V:2]cd zB |
[V:3]z^A, A,B, |
[V:4]zF, F,G, |
[V:1]cc ^AA |
[V:2]EE CC |
[V:3]GG EE |
[V:4]E,E, F,F, |
[V:1]Bz B,B, |
[V:2]B,z3 |
[V:3]D2 z2 |
[V:4]B,,2 z2 |
[V:1]B,D FF |
[V:2]zD DD |
[V:3]zB, B,B, |
[V:4]B,,2 z2 |
[V:1]F2 B,B, |
[V:2]zD DD |
[V:3]zB, B,B, |
[V:4]B,,2 z2 |
[V:1]B,D ^GG |
[V:2]zD DD |
[V:3]zB, B,B, |
[V:4]^E,,2 E,,E,, |
[V:1]^G2 B,B, |
[V:2]D2 DD |
[V:3]B,2 z2 |
[V:4]^E,,2 z2 |
[V:1]B,D C^A, |
[V:2]DF EC |
[V:3]F,4 |
[V:4]F,,4 |
[V:1]B,2 F/e/F/e/ |
[V:2]B,2 z2 |
[V:3]B,B, ^A,A, |
[V:4]B,,2 z2 |
[V:1]F/d/F/d/ F/c/F/c/ |
[V:2]z2 ^AA |
[V:3]B,B, z2 |
[V:4]z4 |
[V:1]F/d/F/d/ F/e/F/e/ |
[V:2]BB z2 |
[V:3]z4 |
[V:4]z2 ^A,A, |
[V:1]F/d/F/d/ F/c/F/c/ |
[V:2]z2 ^aa |
[V:3]z2 EE |
[V:4]B,B, F,F, |
[V:1]B2 [b2B2D2] |
[V:2]b2 [B2D2] |
[V:3]D2 [B,2D2] |
[V:4]B,,2 B,,2 |
[V:1][b2B2D2] z2 |]
[V:2][B2D2] z2 |]
[V:3][B,2D2] z2 |]
[V:4]B,,2 z2 |]

